public/images/poses-lg/Cow.svg

<svg width="800" height="800" fill="none" xmlns="http://www.w3.org/2000/svg"><g clip-path="url(#a)"><path d="M505.715 547.712c27.322 1.586 70.158-38.738 101.352-27.052 0 0 20.698-6.012 25.085-21.05 0 0 8.911 16.846 33.127 25.106 0 0-16.047-1.109-35.553 34.123 0 0-24.054 36.484-40.034 48.856-15.981 12.378-32.283 19.064-51.786 11.805-19.498-7.259-29.117-6.863-42.409-5.739-13.293 1.122-37.766 1.456-37.766 1.456s-10.5-16.58-7.11-38.368c3.391-21.786 13.654-38.369 13.654-38.369s14.648 7.676 41.44 9.232Z" fill="#fff" stroke="#000" stroke-width="5" stroke-miterlimit="10"/><path d="M505.715 547.712c27.322 1.586 70.158-38.738 101.352-27.052 0 0 20.698-6.012 25.085-21.05 0 0 8.911 16.846 33.127 25.106 0 0-16.047-1.109-35.553 34.123 0 0-24.054 36.484-40.034 48.856-15.981 12.378-32.283 19.064-51.786 11.805-19.498-7.259-29.117-6.863-42.409-5.739-13.293 1.122-37.766 1.456-37.766 1.456s-10.5-16.58-7.11-38.368c3.391-21.786 13.654-38.369 13.654-38.369s14.648 7.676 41.44 9.232Z" stroke="#000" stroke-width="5" stroke-miterlimit="10"/><path d="M367.706 562.927c18.731-35.955 43.898-42.197 65.805-35.003 21.912 7.193 30.767 10.557 30.767 10.557s-13.447 21.893-13.998 41.326c-.546 19.431 4.382 29.042 7.452 35.41 0 0-8.892-.866-13.354 2.542-4.462 3.41-9.284 24.045-17.528 71.166-8.242 47.115-16.525 86.396-30.244 94.535-13.72 8.138-83.482 15.574-133.62 7.053-50.141-8.522-54.452-6.471-69.866-3.95-15.414 2.521-73.234 9.54-78.351 7.759-5.118-1.78-1.893-10.622 7.184-15.807 9.075-5.188 13.49-7.72 26.763-10.827 13.273-3.109 27.687-5.969 33.009-9.617 5.322-3.649 11.805-10.674 25.903-4.185 14.095 6.49 44.674-.587 71.529-10.468 26.856-9.885 60.338-17.062 78.483-9.086 0 0-4.452-66.372-.571-113.578 3.883-47.207 10.637-57.827 10.637-57.827Z" fill="#fff" stroke="#000" stroke-width="5" stroke-miterlimit="10"/><path d="M367.706 562.927c18.731-35.955 43.898-42.197 65.805-35.003 21.912 7.193 30.767 10.557 30.767 10.557s-13.447 21.893-13.998 41.326c-.546 19.431 4.382 29.042 7.452 35.41 0 0-8.892-.866-13.354 2.542-4.462 3.41-9.284 24.045-17.528 71.166-8.242 47.115-16.525 86.396-30.244 94.535-13.72 8.138-83.482 15.574-133.62 7.053-50.141-8.522-54.452-6.471-69.866-3.95-15.414 2.521-73.234 9.54-78.351 7.759-5.118-1.78-1.893-10.622 7.184-15.807 9.075-5.188 13.49-7.72 26.763-10.827 13.273-3.109 27.687-5.969 33.009-9.617 5.322-3.649 11.805-10.674 25.903-4.185 14.095 6.49 44.674-.587 71.529-10.468 26.856-9.885 60.338-17.062 78.483-9.086 0 0-4.452-66.372-.571-113.578 3.883-47.207 10.637-57.827 10.637-57.827Z" stroke="#000" stroke-width="5" stroke-miterlimit="10"/><path d="M576.258 589.241s14.761 67.139 15.926 99.59c1.553 43.175 8.71 76.686 13.489 95.093 1.201 4.624 5.581 5.439 9.889 6.77a28.398 28.398 0 0 0 8.232 1.268l63.819.249c1.08.013 1.459-1.434.505-1.943-8.639-4.612-24.871-7.566-31.712-10.119-5.44-2.026-9.888-3.318-15.616-4.263-1.325-.216-3.838-.572-5.178-.641h-.046c-4.271-.232-9.196-3.626-10.914-7.54-2.308-5.266-1.222-8.492-1.143-14.233.087-6.722.179-13.443.266-20.164.182-13.753.364-27.507.548-41.262.05-3.707.097-7.416.147-11.126l-7.576-137.389c-3.303-13.961-14.28-19.879-24.534-18.304-10.255 1.578-37.189 3.358-29.266 35.447 6.244 25.279 13.164 28.567 13.164 28.567Z" fill="#fff" stroke="#000" stroke-width="5" stroke-miterlimit="10"/><path d="M576.258 589.241s14.761 67.139 15.926 99.59c1.553 43.175 8.71 76.686 13.489 95.093 1.201 4.624 5.581 5.439 9.889 6.77a28.398 28.398 0 0 0 8.232 1.268l63.819.249c1.08.013 1.459-1.434.505-1.943-8.639-4.612-24.871-7.566-31.712-10.119-5.44-2.026-9.888-3.318-15.616-4.263-1.325-.216-3.838-.572-5.178-.641h-.046c-4.271-.232-9.196-3.626-10.914-7.54-2.308-5.266-1.222-8.492-1.143-14.233.087-6.722.179-13.443.266-20.164.182-13.753.364-27.507.548-41.262.05-3.707.097-7.416.147-11.126l-7.576-137.389c-3.303-13.961-14.28-19.879-24.534-18.304-10.255 1.578-37.189 3.358-29.266 35.447 6.244 25.279 13.164 28.567 13.164 28.567ZM464.278 538.48s-27.303 43.7-6.546 76.737" stroke="#000" stroke-width="5" stroke-miterlimit="10"/><path d="M652.502 517.153s-5.985-2.766-8.838-8.438Z" fill="#fff"/><path d="M652.502 517.153s-5.985-2.766-8.838-8.438" stroke="#000" stroke-width="5" stroke-miterlimit="10"/><path d="M652.502 517.153s-5.985-2.766-8.838-8.438" stroke="#000" stroke-width="5" stroke-miterlimit="10"/><path d="M620.544 448.473c-5.64-15.574-28.138-49.606-61.166-18.248-20.97 19.907-54.733 46.53-80.427 40.184-25.694-6.344-5.64 52.299 29.247 55.183 34.887 2.884 67.475-18.265 76.874-46.915 9.4-28.648 35.472-30.204 35.472-30.204Z" fill="#000" stroke="#000" stroke-width="5" stroke-miterlimit="10"/><path d="M632.676 503.954c-5.987-6.823-3.881-15.202-7.379-24.549-5.554-14.847 9.982-33.845 27.504-36.457 23.139-3.445 41.233 78.004 28.283 82.168-7.671 2.469-23.344-1.173-36.45-12.029-4.21-3.489-11.958-9.133-11.958-9.133Z" fill="#fff" stroke="#000" stroke-width="5" stroke-miterlimit="10"/><path d="M632.676 503.954c-5.987-6.823-3.881-15.202-7.379-24.549-5.554-14.847 9.982-33.845 27.504-36.457 23.139-3.445 41.233 78.004 28.283 82.168-7.671 2.469-23.344-1.173-36.45-12.029-4.21-3.489-11.958-9.133-11.958-9.133Z" stroke="#000" stroke-width="5" stroke-miterlimit="10"/><path d="M664.35 450.49c2.679 14.394-2.489 42.513-21.457 41.541-21.323-1.096-10.567 9.291-8.191 12.77 2.377 3.482 13.702 8.641 11.907 10.142-1.791 1.502-31.842-3.053-38.87-23.151-7.028-20.1-4.223-31.908 5.179-40.494 9.404-8.586 31.44-14.294 43.499-9.905 12.063 4.388 7.933 9.097 7.933 9.097Z" fill="#000" stroke="#000" stroke-width="5" stroke-miterlimit="10"/><path d="M271.223 745.351s-5.493 33.306-1.422 45.696Z" fill="#fff"/><path d="M271.223 745.351s-5.493 33.306-1.422 45.696" stroke="#000" stroke-width="5" stroke-miterlimit="10"/><path d="M271.223 745.351s-5.493 33.306-1.422 45.696" stroke="#000" stroke-width="5" stroke-miterlimit="10"/><path d="M627.711 561.828c-5.084-6.418-12.742-33.628-13.926-43.834Z" fill="#fff"/><path d="M627.711 561.828c-5.084-6.418-12.742-33.628-13.926-43.834" stroke="#000" stroke-width="5" stroke-miterlimit="10"/><path d="M627.711 561.828c-5.084-6.418-12.742-33.628-13.926-43.834" stroke="#000" stroke-width="5" stroke-miterlimit="10"/></g><defs><clipPath id="a"><path fill="#fff" d="M0 0h800v800H0z"/></clipPath></defs></svg>

<svg width="800" height="800" viewBox="0 0 800 800" fill="none" xmlns="http://www.w3.org/2000/svg">
<g clip-path="url(#clip0_298_12124)">
<path d="M505.715 547.712C533.037 549.298 575.873 508.974 607.067 520.66C607.067 520.66 627.765 514.648 632.152 499.61C632.152 499.61 641.063 516.456 665.279 524.716C665.279 524.716 649.232 523.607 629.726 558.839C629.726 558.839 605.672 595.323 589.692 607.695C573.711 620.073 557.409 626.759 537.906 619.5C518.408 612.241 508.789 612.637 495.497 613.761C482.204 614.883 457.731 615.217 457.731 615.217C457.731 615.217 447.231 598.637 450.621 576.849C454.012 555.063 464.275 538.48 464.275 538.48C464.275 538.48 478.923 546.156 505.715 547.712Z" fill="white" stroke="black" stroke-width="5" stroke-miterlimit="10"/>
<path d="M505.715 547.712C533.037 549.298 575.873 508.974 607.067 520.66C607.067 520.66 627.765 514.648 632.152 499.61C632.152 499.61 641.063 516.456 665.279 524.716C665.279 524.716 649.232 523.607 629.726 558.839C629.726 558.839 605.672 595.323 589.692 607.695C573.711 620.073 557.409 626.759 537.906 619.5C518.408 612.241 508.789 612.637 495.497 613.761C482.204 614.883 457.731 615.217 457.731 615.217C457.731 615.217 447.231 598.637 450.621 576.849C454.012 555.063 464.275 538.48 464.275 538.48C464.275 538.48 478.923 546.156 505.715 547.712Z" stroke="black" stroke-width="5" stroke-miterlimit="10"/>
<path d="M367.706 562.927C386.437 526.972 411.604 520.73 433.511 527.924C455.423 535.117 464.278 538.481 464.278 538.481C464.278 538.481 450.831 560.374 450.28 579.807C449.734 599.238 454.662 608.849 457.732 615.217C457.732 615.217 448.84 614.351 444.378 617.759C439.916 621.169 435.094 641.804 426.85 688.925C418.608 736.04 410.325 775.321 396.606 783.46C382.886 791.598 313.124 799.034 262.986 790.513C212.845 781.991 208.534 784.042 193.12 786.563C177.706 789.084 119.886 796.103 114.769 794.322C109.651 792.542 112.876 783.7 121.953 778.515C131.028 773.327 135.443 770.795 148.716 767.688C161.989 764.579 176.403 761.719 181.725 758.071C187.047 754.422 193.53 747.397 207.628 753.886C221.723 760.376 252.302 753.299 279.157 743.418C306.013 733.533 339.495 726.356 357.64 734.332C357.64 734.332 353.188 667.96 357.069 620.754C360.952 573.547 367.706 562.927 367.706 562.927Z" fill="white" stroke="black" stroke-width="5" stroke-miterlimit="10"/>
<path d="M367.706 562.927C386.437 526.972 411.604 520.73 433.511 527.924C455.423 535.117 464.278 538.481 464.278 538.481C464.278 538.481 450.831 560.374 450.28 579.807C449.734 599.238 454.662 608.849 457.732 615.217C457.732 615.217 448.84 614.351 444.378 617.759C439.916 621.169 435.094 641.804 426.85 688.925C418.608 736.04 410.325 775.321 396.606 783.46C382.886 791.598 313.124 799.034 262.986 790.513C212.845 781.991 208.534 784.042 193.12 786.563C177.706 789.084 119.886 796.103 114.769 794.322C109.651 792.542 112.876 783.7 121.953 778.515C131.028 773.327 135.443 770.795 148.716 767.688C161.989 764.579 176.403 761.719 181.725 758.071C187.047 754.422 193.53 747.397 207.628 753.886C221.723 760.376 252.302 753.299 279.157 743.418C306.013 733.533 339.495 726.356 357.64 734.332C357.64 734.332 353.188 667.96 357.069 620.754C360.952 573.547 367.706 562.927 367.706 562.927Z" stroke="black" stroke-width="5" stroke-miterlimit="10"/>
<path d="M576.258 589.241C576.258 589.241 591.019 656.38 592.184 688.831C593.737 732.006 600.894 765.517 605.673 783.924C606.874 788.548 611.254 789.363 615.562 790.694C618.992 791.756 621.853 791.94 623.794 791.962L687.613 792.211C688.693 792.224 689.072 790.777 688.118 790.268C679.479 785.656 663.247 782.702 656.406 780.149C650.966 778.123 646.518 776.831 640.79 775.886C639.465 775.67 636.952 775.314 635.612 775.245H635.566C631.295 775.013 626.37 771.619 624.652 767.705C622.344 762.439 623.43 759.213 623.509 753.472C623.596 746.75 623.688 740.029 623.775 733.308C623.957 719.555 624.139 705.801 624.323 692.046C624.373 688.339 624.42 684.63 624.47 680.92L616.894 543.531C613.591 529.57 602.614 523.652 592.36 525.227C582.105 526.805 555.171 528.585 563.094 560.674C569.338 585.953 576.258 589.241 576.258 589.241Z" fill="white" stroke="black" stroke-width="5" stroke-miterlimit="10"/>
<path d="M576.258 589.241C576.258 589.241 591.019 656.38 592.184 688.831C593.737 732.006 600.894 765.517 605.673 783.924C606.874 788.548 611.254 789.363 615.562 790.694C618.992 791.756 621.853 791.94 623.794 791.962L687.613 792.211C688.693 792.224 689.072 790.777 688.118 790.268C679.479 785.656 663.247 782.702 656.406 780.149C650.966 778.123 646.518 776.831 640.79 775.886C639.465 775.67 636.952 775.314 635.612 775.245H635.566C631.295 775.013 626.37 771.619 624.652 767.705C622.344 762.439 623.43 759.213 623.509 753.472C623.596 746.75 623.688 740.029 623.775 733.308C623.957 719.555 624.139 705.801 624.323 692.046C624.373 688.339 624.42 684.63 624.47 680.92L616.894 543.531C613.591 529.57 602.614 523.652 592.36 525.227C582.105 526.805 555.171 528.585 563.094 560.674C569.338 585.953 576.258 589.241 576.258 589.241Z" stroke="black" stroke-width="5" stroke-miterlimit="10"/>
<path d="M464.278 538.48C464.278 538.48 436.975 582.18 457.732 615.217" stroke="black" stroke-width="5" stroke-miterlimit="10"/>
<path d="M652.502 517.153C652.502 517.153 646.517 514.387 643.664 508.715Z" fill="white"/>
<path d="M652.502 517.153C652.502 517.153 646.517 514.387 643.664 508.715" stroke="black" stroke-width="5" stroke-miterlimit="10"/>
<path d="M652.502 517.153C652.502 517.153 646.517 514.387 643.664 508.715" stroke="black" stroke-width="5" stroke-miterlimit="10"/>
<path d="M620.544 448.473C614.904 432.899 592.406 398.867 559.378 430.225C538.408 450.132 504.645 476.755 478.951 470.409C453.257 464.065 473.311 522.708 508.198 525.592C543.085 528.476 575.673 507.327 585.072 478.677C594.472 450.029 620.544 448.473 620.544 448.473Z" fill="black" stroke="black" stroke-width="5" stroke-miterlimit="10"/>
<path d="M632.676 503.954C626.689 497.131 628.795 488.752 625.297 479.405C619.743 464.558 635.279 445.56 652.801 442.948C675.94 439.503 694.034 520.952 681.084 525.116C673.413 527.585 657.74 523.943 644.634 513.087C640.424 509.598 632.676 503.954 632.676 503.954Z" fill="white" stroke="black" stroke-width="5" stroke-miterlimit="10"/>
<path d="M632.676 503.954C626.689 497.131 628.795 488.752 625.297 479.405C619.743 464.558 635.279 445.56 652.801 442.948C675.94 439.503 694.034 520.952 681.084 525.116C673.413 527.585 657.74 523.943 644.634 513.087C640.424 509.598 632.676 503.954 632.676 503.954Z" stroke="black" stroke-width="5" stroke-miterlimit="10"/>
<path d="M664.35 450.49C667.029 464.884 661.861 493.003 642.893 492.031C621.57 490.935 632.326 501.322 634.702 504.801C637.079 508.283 648.404 513.442 646.609 514.943C644.818 516.445 614.767 511.89 607.739 491.792C600.711 471.692 603.516 459.884 612.918 451.298C622.322 442.712 644.358 437.004 656.417 441.393C668.48 445.781 664.35 450.49 664.35 450.49Z" fill="black" stroke="black" stroke-width="5" stroke-miterlimit="10"/>
<path d="M271.223 745.351C271.223 745.351 265.73 778.657 269.801 791.047Z" fill="white"/>
<path d="M271.223 745.351C271.223 745.351 265.73 778.657 269.801 791.047" stroke="black" stroke-width="5" stroke-miterlimit="10"/>
<path d="M271.223 745.351C271.223 745.351 265.73 778.657 269.801 791.047" stroke="black" stroke-width="5" stroke-miterlimit="10"/>
<path d="M627.711 561.828C622.627 555.41 614.969 528.2 613.785 517.994Z" fill="white"/>
<path d="M627.711 561.828C622.627 555.41 614.969 528.2 613.785 517.994" stroke="black" stroke-width="5" stroke-miterlimit="10"/>
<path d="M627.711 561.828C622.627 555.41 614.969 528.2 613.785 517.994" stroke="black" stroke-width="5" stroke-miterlimit="10"/>
</g>
<defs>
<clipPath id="clip0_298_12124">
<rect width="800" height="800" fill="white"/>
</clipPath>
</defs>
</svg>
